Sources/FrostedUI/Resources/Icons.xcassets/cube24.imageset/cube-24.svg

<svg width="24" height="24" viewBox="0 0 24 24" fill="none" xmlns="http://www.w3.org/2000/svg" data-fui-icon="true">
  <path
    d="M12 1C12.6375 1 13.2623 1.17763 13.8047 1.5127L20.5547 5.68262C21.4531 6.23789 22 7.21917 22 8.27539V15.7246C22 16.7808 21.4531 17.7621 20.5547 18.3174L13.8047 22.4873C13.2623 22.8224 12.6375 23 12 23C11.3625 23 10.7377 22.8224 10.1953 22.4873L3.44531 18.3174C2.54685 17.7621 2 16.7808 2 15.7246V8.27539C2 7.21917 2.54685 6.23789 3.44531 5.68262L10.1953 1.5127C10.7377 1.17763 11.3625 1 12 1ZM12 2.5C11.641 2.5 11.2888 2.60035 10.9834 2.78906L4.23438 6.95898C3.77804 7.24094 3.5 7.73897 3.5 8.27539V15.7246C3.5 16.261 3.77804 16.7591 4.23438 17.041L10.9834 21.2109C11.2888 21.3996 11.641 21.5 12 21.5C12.359 21.5 12.7112 21.3996 13.0166 21.2109L19.7656 17.041C20.222 16.7591 20.5 16.261 20.5 15.7246V8.27539C20.5 7.73897 20.222 7.24094 19.7656 6.95898L13.0166 2.78906C12.7112 2.60035 12.359 2.5 12 2.5ZM5.95312 8.48828C6.15032 8.12417 6.60552 7.98946 6.96973 8.18652L11.9961 10.9053L17.0244 8.18652C17.3886 7.98964 17.8439 8.12425 18.041 8.48828C18.2377 8.85231 18.102 9.30764 17.7383 9.50488L12.7432 12.208V18.1299C12.743 18.5439 12.4072 18.8797 11.9932 18.8799C11.579 18.8799 11.2433 18.544 11.2432 18.1299V12.2041L6.25586 9.50488C5.89187 9.30765 5.75611 8.85243 5.95312 8.48828Z"
    fill="currentColor"
  />
</svg>

<svg xmlns="http://www.w3.org/2000/svg" width="24" height="24" fill="none" data-fui-icon="true" viewBox="0 0 24 24"><path fill="currentColor" d="M12 1c.637 0 1.262.178 1.805.513l6.75 4.17A3.05 3.05 0 0 1 22 8.275v7.45a3.05 3.05 0 0 1-1.445 2.592l-6.75 4.17a3.43 3.43 0 0 1-3.61 0l-6.75-4.17A3.05 3.05 0 0 1 2 15.725v-7.45c0-1.056.547-2.037 1.445-2.592l6.75-4.17A3.43 3.43 0 0 1 12 1m0 1.5c-.359 0-.711.1-1.017.29L4.234 6.958c-.456.282-.734.78-.734 1.316v7.45c0 .536.278 1.034.734 1.316l6.75 4.17a1.94 1.94 0 0 0 2.033 0l6.749-4.17c.456-.282.734-.78.734-1.316v-7.45c0-.536-.278-1.034-.734-1.316l-6.75-4.17A1.94 1.94 0 0 0 12 2.5M5.953 8.488a.75.75 0 0 1 1.017-.301l5.026 2.718 5.028-2.718a.75.75 0 1 1 .714 1.318l-4.995 2.703v5.922a.75.75 0 0 1-1.5 0v-5.926l-4.987-2.7a.75.75 0 0 1-.303-1.016"/></svg>
